svg/device/computer_camera_off_fill.svg

<?xml version="1.0" encoding="UTF-8"?>
<svg width="24px" height="24px" viewBox="0 0 24 24" version="1.1" xmlns="http://www.w3.org/2000/svg" xmlns:xlink="http://www.w3.org/1999/xlink">
    <title>computer_camera_off_fill</title>
    <g id="页面-1" stroke="none" stroke-width="1" fill="none" fill-rule="evenodd">
        <g id="Device" transform="translate(-96.000000, -240.000000)" fill-rule="nonzero">
            <g id="computer_camera_off_fill" transform="translate(96.000000, 240.000000)">
                 <path d="M24,0 L24,24 L0,24 L0,0 L24,0 Z M12.5934901,23.257841 L12.5819402,23.2595131 L12.5108777,23.2950439 L12.4918791,23.2987469 L12.4918791,23.2987469 L12.4767152,23.2950439 L12.4056548,23.2595131 C12.3958229,23.2563662 12.3870493,23.2590235 12.3821421,23.2649074 L12.3780323,23.275831 L12.360941,23.7031097 L12.3658947,23.7234994 L12.3769048,23.7357139 L12.4804777,23.8096931 L12.4953491,23.8136134 L12.4953491,23.8136134 L12.5071152,23.8096931 L12.6106902,23.7357139 L12.6232938,23.7196733 L12.6232938,23.7196733 L12.6266527,23.7031097 L12.609561,23.275831 C12.6075724,23.2657013 12.6010112,23.2592993 12.5934901,23.257841 L12.5934901,23.257841 Z M12.8583906,23.1452862 L12.8445485,23.1473072 L12.6598443,23.2396597 L12.6498822,23.2499052 L12.6498822,23.2499052 L12.6471943,23.2611114 L12.6650943,23.6906389 L12.6699349,23.7034178 L12.6699349,23.7034178 L12.678386,23.7104931 L12.8793402,23.8032389 C12.8914285,23.8068999 12.9022333,23.8029875 12.9078286,23.7952264 L12.9118235,23.7811639 L12.8776777,23.1665331 C12.8752882,23.1545897 12.8674102,23.1470016 12.8583906,23.1452862 L12.8583906,23.1452862 Z M12.1430473,23.1473072 C12.1332178,23.1423925 12.1221763,23.1452606 12.1156365,23.1525954 L12.1099173,23.1665331 L12.0757714,23.7811639 C12.0751323,23.7926639 12.0828099,23.8018602 12.0926481,23.8045676 L12.108256,23.8032389 L12.3092106,23.7104931 L12.3186497,23.7024347 L12.3186497,23.7024347 L12.3225043,23.6906389 L12.340401,23.2611114 L12.337245,23.2485176 L12.337245,23.2485176 L12.3277531,23.2396597 L12.1430473,23.1473072 Z" id="MingCute" fill-rule="nonzero"></path>
                <path d="M4.7397,16.8767 C6.56222,18.8003 9.141,20.0001 12,20.0001 C13.73824,20.0001 15.372992,19.5565302 16.7970977,18.7764676 L17.099,18.6042 L17.869,19.3742 C18.3085,19.8138 18.9288,19.9623 19.4905,19.8199 C19.3703,19.9673 19.2367,20.1 19.0991,20.2175 C18.6201,20.6262 17.9858,20.9491 17.2893,21.2005 C15.8877,21.7064 14.0176,22 12,22 C9.98244,22 8.11228,21.7064 6.71074,21.2005 C6.01418,20.9491 5.37992,20.6262 4.90095,20.2175 C4.42577,19.812 4,19.2263 4,18.4733 C4,17.8095 4.32655,17.2787 4.7397,16.8767 Z M12,2 C16.4183,2 20,5.58172 20,10 C20,11.7643294 19.4289163,13.3951668 18.4614103,14.717934 L18.2754,14.9623 L19.7782,16.4651 C20.1687,16.8556 20.1687,17.4887 19.7782,17.8793 C19.4177385,18.2397615 18.8504793,18.2674893 18.4582027,17.9624834 L18.364,17.8793 L4.22185,3.73714 C3.83132,3.34661 3.83132,2.71345 4.22185,2.32292 C4.58233,1.96244 5.14956503,1.93471077 5.5418535,2.23973231 L5.63606,2.32292 L7.03772,3.72458 C8.40145,2.64475 10.1254,2 12,2 Z M4.86761,6.37284 L8.02705,9.53229 C8.00919,9.68571 8,9.84178 8,10 C8,12.2091 9.79086,14 12,14 C12.1582,14 12.3143,13.9908 12.4677,13.9729 L15.6272,17.1324 C14.5384,17.6872 13.3057,18 12,18 C7.58172,18 4,14.4183 4,10 C4,8.69427 4.31282,7.4616 4.86761,6.37284 Z M12,6 C11.2319,6 10.5143,6.21652 9.90499,6.59186 L11.4036,8.09044 C11.5919,8.03167 11.7923,8 12,8 C13.1046,8 14,8.89543 14,10 C14,10.2077 13.9683,10.4081 13.9096,10.5964 L15.4081,12.095 C15.7835,11.4857 16,10.7681 16,10 C16,7.79086 14.2091,6 12,6 Z" id="形状" fill="#09244B"></path>
            </g>
        </g>
    </g>
</svg>

<svg xmlns="http://www.w3.org/2000/svg" width="24" height="24"><g fill="none" fill-rule="nonzero"><path d="M24 0v24H0V0h24ZM12.593 23.258l-.011.002-.071.035-.02.004-.014-.004-.071-.035c-.01-.004-.019-.001-.024.005l-.004.01-.017.428.005.02.01.013.104.074.015.004.012-.004.104-.074.012-.016.004-.017-.017-.427c-.002-.01-.009-.017-.017-.018Zm.265-.113-.013.002-.185.093-.01.01-.003.011.018.43.005.012.008.007.201.093c.012.004.023 0 .029-.008l.004-.014-.034-.614c-.003-.012-.01-.02-.02-.022Zm-.715.002a.023.023 0 0 0-.027.006l-.006.014-.034.614c0 .012.007.02.017.024l.015-.002.201-.093.01-.008.004-.011.017-.43-.003-.012-.01-.01-.184-.092Z"/><path fill="#09244B" d="M4.74 16.877A9.972 9.972 0 0 0 12 20a9.955 9.955 0 0 0 4.797-1.224l.302-.172.77.77c.44.44 1.06.588 1.622.446-.12.147-.254.28-.392.398-.479.408-1.113.731-1.81.983-1.401.505-3.271.799-5.289.799s-3.888-.294-5.29-.8c-.696-.25-1.33-.574-1.809-.982-.475-.406-.901-.992-.901-1.745 0-.663.327-1.194.74-1.596ZM12 2a8 8 0 0 1 6.461 12.718l-.186.244 1.503 1.503a1 1 0 0 1-1.32 1.497l-.094-.083L4.222 3.737a1 1 0 0 1 1.32-1.497l.094.083 1.402 1.402A7.966 7.966 0 0 1 12 2ZM4.868 6.373l3.159 3.16a4 4 0 0 0 4.44 4.44l3.16 3.16a8 8 0 0 1-10.76-10.76ZM12 6c-.768 0-1.486.217-2.095.592l1.499 1.498a2 2 0 0 1 2.506 2.506l1.498 1.499A4 4 0 0 0 12 6Z"/></g></svg>
